X: 8586
T: Cromlits Lilt
R: waltz
M: 3/4
K: Dmajor
d2 A2 Bd|B3 AFB|AB AF EF|D3 E D2|
D2 F2 A2|B2 cd e2|Ag "tr"e3 f|d3 e d2:|
]|:d2 {de}f2 ed|B2 cd e2|A2 {AB}c2 BA|G3 A B2|
A2 dc dF|G3 A {Bc}d2|A>B AF EF|D3 E D2:|

